icons/wercker.svg

<?xml version="1.0" encoding="UTF-8" standalone="no" ?>
<svg width="256px" height="342px" viewBox="0 0 256 342" version="1.1" xmlns="http://www.w3.org/2000/svg" xmlns:xlink="http://www.w3.org/1999/xlink" preserveAspectRatio="xMidYMid">
    <g fill="#000000">
        <g>
            <path d="M0,74.7333333 L0,176.066667 L23.7047071,176.066667 L23.7047071,88.6 L127.994253,26.7333333 L232.300219,88.6 L232.300219,199.533333 C232.300219,216.6 226.133333,230.466667 215.466667,245.4 C189.678705,280.6 142.933333,306.2 128,313.666667 C113.303804,306.2 70.4,282.733333 42.6666667,249.666667 L180.139026,249.666667 C190.099042,240.066667 193.066667,236.866667 201.6,225.133333 L3.29537627,225.133333 C22.5651998,293.4 128,341.4 128,341.4 C127.972908,341.4 233.6,294.466667 252.8,225.133333 C254.809593,217.666667 256,208.066667 256,199.533333 L256,74.7333333 L127.994253,0.06666667 L0,74.7333333 L0,74.7333333 Z"></path>
            <path d="M66.0841989,108.866667 L188.029393,108.866667 L188.029393,129.133333 L66.0841989,129.133333 L66.0841989,108.866667 L66.0841989,108.866667 Z"></path>
            <path d="M55.8919546,145.133333 L198.159718,145.133333 L198.159718,165.4 L55.8919546,165.4 L55.8919546,145.133333 L55.8919546,145.133333 Z"></path>
            <path d="M53.3333333,180.333333 L195.601097,180.333333 L195.601097,200.6 L53.3333333,200.6 L53.3333333,180.333333 L53.3333333,180.333333 Z"></path>
            <path d="M99.0806737,73.6666667 L154.972628,73.6666667 L154.972628,93.9333333 L99.0806737,93.9333333 L99.0806737,73.6666667 L99.0806737,73.6666667 Z"></path>
        </g>
    </g>
</svg>

<svg xmlns="http://www.w3.org/2000/svg" viewBox="0 0 256 341.333">
  <path d="M0 74.667V176h23.705V88.533l104.29-61.866L232.3 88.533v110.934c0 17.066-6.167 30.933-16.833 45.866-25.788 35.2-72.534 60.8-87.467 68.267-14.696-7.467-57.6-30.933-85.333-64h137.472c9.96-9.6 12.928-12.8 21.461-24.533H3.295C22.565 293.333 128 341.333 128 341.333c-.027 0 105.6-46.933 124.8-116.266 2.01-7.467 3.2-17.067 3.2-25.6v-124.8L127.994 0z"/>
  <path d="M66.084 108.8H188.03v20.267H66.084zM55.892 145.067H198.16v20.266H55.892zM53.333 180.267h142.268v20.266H53.333zM99.08 73.6h55.893v20.267H99.08z"/>
</svg>
